shared/images/iconfont/kb-iconfont-link-16.svg

<?xml version="1.0" encoding="UTF-8"?>
<svg width="16px" height="16px" viewBox="0 0 16 16" version="1.1" xmlns="http://www.w3.org/2000/svg" xmlns:xlink="http://www.w3.org/1999/xlink">
    <!-- Generator: sketchtool 41.2 (35397) - http://www.bohemiancoding.com/sketch -->
    <title>E99E9C7E-6E84-4D11-B35B-E8F1F8357E8E</title>
    <desc>Created with sketchtool.</desc>
    <defs></defs>
    <g id="Icons" stroke="none" stroke-width="1" fill="none" fill-rule="evenodd">
        <g id="Style-guide---Desktop---Icons-2" transform="translate(-401.000000, -1239.000000)">
            <g id="kb-iconfont-link-16" transform="translate(401.000000, 1239.000000)">
                <rect id="icon-area" fill="#D8D8D8" opacity="0" x="0" y="0" width="16" height="16"></rect>
                <path d="M13.960125,1.13329178 C12.51075,-0.304833219 10.48425,-0.382833219 9.1425,0.948416781 L8.196375,1.88760428 C7.8320625,2.24929178 7.8298125,2.83747928 8.1916875,3.20179178 C8.5535625,3.56610428 9.1419375,3.56816678 9.50625,3.20647928 L10.452,2.26785428 C11.1470625,1.57766678 12.0571875,1.86379178 12.6508125,2.45272928 C12.9673125,2.76641678 13.141125,3.18322928 13.141125,3.62610428 C13.141125,4.06916678 12.967125,4.48597928 12.6511875,4.79966678 L9.6705,7.75654178 C8.3075625,9.10879178 7.6681875,8.47410428 7.395375,8.20335428 C7.0310625,7.84166678 6.442875,7.84391678 6.081,8.20804178 C5.719125,8.57216678 5.721375,9.16072928 6.0856875,9.52222928 C6.711375,10.1432293 7.4255625,10.4511043 8.17425,10.4511043 C9.0909375,10.4511043 10.0591875,9.98947928 10.9798125,9.07541678 L13.9605,6.11854178 C14.630625,5.45310428 15,4.56791678 15,3.62591678 C15,2.68429178 14.630625,1.79910428 13.960125,1.13329178 M5.493375,11.9008543 L4.734375,12.6546043 C4.0764375,13.3067293 3.006375,13.3072918 2.3488125,12.6546043 C2.0326875,12.3409168 1.8590625,11.9242918 1.8590625,11.4814168 C1.8590625,11.0385418 2.032875,10.6217293 2.348625,10.3080418 L5.142375,7.53622928 C5.721375,6.96210428 6.8105625,6.11666678 7.6044375,6.90397928 C7.96875,7.26585428 8.557125,7.26341678 8.9188125,6.89929178 C9.2806875,6.53516678 9.2784375,5.94660428 8.914125,5.58510428 C7.5646875,4.24597928 5.57025,4.49347928 3.83325,6.21697928 L1.0393125,8.98897928 C0.369,9.65441678 0,10.5394168 0,11.4814168 C0,12.4234168 0.369,13.3082293 1.0395,13.9736668 C1.7293125,14.6580418 2.635125,15.0000418 3.5413125,15.0000418 C4.4476875,15.0000418 5.353875,14.6580418 6.0440625,13.9732918 L6.803625,13.2193543 C7.16775,12.8578543 7.1698125,12.2694793 6.8079375,11.9051668 C6.446625,11.5412293 5.8576875,11.5391668 5.493375,11.9008543" id="Fill-1" fill="#000000"></path>
            </g>
        </g>
    </g>
</svg>

<svg xmlns="http://www.w3.org/2000/svg" width="16" height="16" viewBox="0 0 16 16">
    <path fill="#000" fill-rule="evenodd" d="M13.96 1.133C12.51-.305 10.484-.383 9.142.948l-.946.94a.929.929 0 1 0 1.31 1.318l.946-.938c.695-.69 1.605-.404 2.199.185.316.313.49.73.49 1.173 0 .443-.174.86-.49 1.174l-2.98 2.957c-1.363 1.352-2.003.717-2.276.446a.93.93 0 0 0-1.31 1.32c.626.62 1.34.928 2.09.928.916 0 1.884-.462 2.805-1.376l2.98-2.956A3.49 3.49 0 0 0 15 3.626a3.49 3.49 0 0 0-1.04-2.493M5.493 11.901l-.759.754a1.698 1.698 0 0 1-2.385 0 1.642 1.642 0 0 1-.49-1.174c0-.442.174-.86.49-1.173l2.793-2.772c.58-.574 1.669-1.42 2.462-.632a.93.93 0 1 0 1.31-1.319c-1.35-1.339-3.344-1.092-5.08.632L1.038 8.989A3.488 3.488 0 0 0 0 11.481c0 .942.369 1.827 1.04 2.493A3.541 3.541 0 0 0 3.54 15c.907 0 1.813-.342 2.503-1.027l.76-.754a.93.93 0 1 0-1.31-1.318"/>
</svg>
